kwork_juristConsalt/img/svg/directors.svg

<svg width="180" height="180" fill="none" xmlns="http://www.w3.org/2000/svg"><g clip-path="url(#clip0)"><rect width="180" height="180" rx="90" fill="#fff"/><path fill-rule="evenodd" clip-rule="evenodd" d="M125.605 130.11c7.463-4.147 14.793-8.568 23.385-9.415 9.243-.911 18.974-.193 27.462 4.401 8.695 4.706 13.5 14.181 20.39 21.496 9.233 9.803 21.134 16.88 27.155 28.981 7.957 15.995 22.577 37.319 12.569 50.866-10.702 14.485-34.933 4.219-53.066 3.947-10.694-.16-20.725-3.886-31.411-5.214-9.551-1.187-19.02 1.126-28.21-2.197-10.468-3.785-18.933-11.245-27.963-18.114-14.468-11.004-43.873-16.821-41.199-34.486 2.973-19.639 33.666-15.805 50.237-25.218 7.528-4.276 13.081-10.843 20.651-15.047z" fill="#1C3C89"/></g><defs><clipPath id="clip0"><rect width="180" height="180" rx="90" fill="#fff"/></clipPath></defs></svg>

<svg width="180" height="180" viewBox="0 0 180 180" fill="none" xmlns="http://www.w3.org/2000/svg">
<g clip-path="url(#clip0)">
<rect width="180" height="180" rx="90" fill="white"/>
<path fill-rule="evenodd" clip-rule="evenodd" d="M125.605 130.11C133.068 125.963 140.398 121.542 148.99 120.695C158.233 119.784 167.964 120.502 176.452 125.096C185.147 129.802 189.952 139.277 196.842 146.592C206.075 156.395 217.976 163.472 223.997 175.573C231.954 191.568 246.574 212.892 236.566 226.439C225.864 240.924 201.633 230.658 183.5 230.386C172.806 230.226 162.775 226.5 152.089 225.172C142.538 223.985 133.069 226.298 123.879 222.975C113.411 219.19 104.946 211.73 95.9156 204.861C81.4475 193.857 52.043 188.04 54.7171 170.375C57.6901 150.736 88.3828 154.57 104.954 145.157C112.482 140.881 118.035 134.314 125.605 130.11Z" fill="#1C3C89"/>
</g>
<defs>
<clipPath id="clip0">
<rect width="180" height="180" rx="90" fill="white"/>
</clipPath>
</defs>
</svg>
